X: 9
T:Les Chevaux de Bois
C:Bernard Kerboeuf
Z:Dave Holland <dave@biff.org.uk>
% there are probably some mistakes in this transcription
D:Attendez jusqu'a demain (Les Chiens Jaunes)
N:originally in D minor
R:Waltz
M:3/4
L:1/8
K:Bb
d3dd2|d2c2B2|d2c2B2|A6|e3ee2|e2d2c2|g2f2e2|d2c2B2|
d3dd2|d2c2B2|d2c2B2|A6|edcedc|dcBdcB|A2B2A2|G6:|
K:G
dBdBdB|eBeBeB|dBdBdB|eBeBeB|dBeBfB|gBfBeB|dBeBgB|f2c4|
ececec|fcfcfc|ececec|fcfcfc|ecfcgc|fcecgc|fcecdc|B6:|
